<?xml version="1.0" encoding="UTF-8"?>
<map version="1.10" tiledversion="1.11.2" orientation="orthogonal" renderorder="left-down" width="33" height="33" tilewidth="16" tileheight="16" infinite="0" nextlayerid="11" nextobjectid="19">
 <properties>
  <property name="LocationContext" value="Default"/>
  <property name="Music" value="distantBanjo"/>
  <property name="Outdoors" value="T"/>
  <property name="Pathoschild.CentralStation_TicketMachine" value="12 8 Bus"/>
  <property name="Warp" value="3 7 BusStop 39 8 5 15 Custom_Sumi_House 3 22"/>
 </properties>
 <tileset firstgid="1" name="spring_town" tilewidth="16" tileheight="16" tilecount="15" columns="32">
  <image source="spring_town.png" width="512" height="1152"/>
  <tile id="608">
   <properties>
    <property name="Type" value="Grass"/>
   </properties>
  </tile>
  <tile id="609">
   <properties>
    <property name="Type" value="Grass"/>
   </properties>
  </tile>
  <tile id="610">
   <properties>
    <property name="Type" value="Grass"/>
   </properties>
  </tile>
  <tile id="611">
   <properties>
    <property name="Type" value="Grass"/>
   </properties>
  </tile>
  <tile id="640">
   <properties>
    <property name="Type" value="Grass"/>
   </properties>
  </tile>
  <tile id="642">
   <properties>
    <property name="Type" value="Grass"/>
   </properties>
  </tile>
  <tile id="672">
   <properties>
    <property name="Type" value="Grass"/>
   </properties>
  </tile>
  <tile id="673">
   <properties>
    <property name="Type" value="Grass"/>
   </properties>
  </tile>
  <tile id="674">
   <properties>
    <property name="Type" value="Grass"/>
   </properties>
  </tile>
  <tile id="704">
   <properties>
    <property name="Type" value="Grass"/>
   </properties>
  </tile>
  <tile id="705">
   <properties>
    <property name="Type" value="Grass"/>
   </properties>
  </tile>
  <tile id="736">
   <properties>
    <property name="Type" value="Stone"/>
   </properties>
  </tile>
  <tile id="737">
   <properties>
    <property name="Type" value="Stone"/>
   </properties>
  </tile>
  <tile id="768">
   <properties>
    <property name="Type" value="Stone"/>
   </properties>
  </tile>
  <tile id="769">
   <properties>
    <property name="Type" value="Stone"/>
   </properties>
  </tile>
 </tileset>
 <tileset firstgid="771" name="spring_outdoorsTileSheet" tilewidth="16" tileheight="16" tilecount="6" columns="25">
  <image source="spring_outdoorsTileSheet.png" width="400" height="1264"/>
  <tile id="175">
   <properties>
    <property name="Type" value="Grass"/>
   </properties>
  </tile>
  <tile id="1027">
   <properties>
    <property name="Type" value="Grass"/>
   </properties>
  </tile>
  <tile id="1028">
   <properties>
    <property name="Type" value="Grass"/>
   </properties>
  </tile>
  <tile id="1030">
   <properties>
    <property name="Type" value="Stone"/>
   </properties>
  </tile>
  <tile id="1054">
   <properties>
    <property name="Type" value="Stone"/>
   </properties>
  </tile>
  <tile id="1056">
   <properties>
    <property name="Type" value="Stone"/>
   </properties>
  </tile>
 </tileset>
 <tileset firstgid="1828" name="spring_mod_lumisteria_tilesheetsoutdoor_buildings" tilewidth="16" tileheight="16" tilecount="0" columns="25">
  <image source="spring_mod_lumisteria_tilesheetsoutdoor_buildings.png" width="400" height="1200"/>
 </tileset>
 <tileset firstgid="3597" name="spring_mod_lumisteria_tilesheetsoutdoor_decorations" tilewidth="16" tileheight="16" tilecount="0" columns="25">
  <image source="spring_mod_lumisteria_tilesheetsoutdoor_decorations.png" width="400" height="256"/>
 </tileset>
 <tileset firstgid="3818" name="spring_mod_lumisteria_tilesheetsoutdoor_tiles" tilewidth="16" tileheight="16" tilecount="0" columns="25">
  <image source="spring_mod_lumisteria_tilesheetsoutdoor_tiles.png" width="400" height="960"/>
 </tileset>
 <layer id="1" name="Back" width="33" height="33">
  <data encoding="csv">
0,0,0,1263,0,0,0,0,0,0,0,0,0,0,0,0,0,0,0,0,0,0,0,0,0,0,0,0,0,0,0,0,0,
0,0,0,1263,1263,0,0,0,0,0,0,0,0,0,0,0,0,0,0,0,0,0,0,0,0,0,0,0,0,0,0,0,0,
0,0,0,1263,1263,0,0,0,0,0,0,0,0,0,0,0,0,0,0,0,0,0,0,0,0,0,0,0,0,0,0,0,0,
0,0,0,1263,1263,946,946,946,946,946,946,946,946,946,946,946,946,946,946,946,946,946,946,946,946,946,946,946,946,946,946,946,946,
0,0,0,946,946,946,946,946,946,946,946,946,946,946,946,946,946,946,946,946,946,946,946,946,946,946,946,946,946,946,946,946,946,
1799,1799,1799,1799,1799,1799,1799,1799,1799,1799,1799,1799,1799,1799,1799,1799,1799,1799,1799,1799,1799,1799,1799,1799,1799,1799,1799,1799,1799,1799,1799,1799,1799,
1825,1825,1825,1825,1825,1825,1825,1825,1825,1825,1825,1825,1825,1825,1801,1825,1825,1825,1825,1825,1825,1825,1825,1825,1825,1825,1825,1825,1825,1825,1825,1825,1825,
1827,1827,1827,1827,1827,1827,1827,1827,1827,1827,1827,1827,1827,1827,1801,1827,1827,1827,1827,1827,1827,1827,1827,1827,1827,1827,1827,1827,1827,1827,1827,1827,1827,
1825,1825,1825,1825,1825,1825,1825,1825,1825,1825,1825,1825,1825,1825,1801,1825,1825,1825,1825,1825,1825,1825,1825,1825,1825,1825,1825,1825,1825,1825,1825,1825,1825,
0,0,0,1073743622,1073743622,1073743622,1073743622,1073743622,1073743622,1073743622,1073743622,1073743622,1073743622,1073743622,1073743622,1073743622,1073743622,1073743622,1073743622,1073743622,1073743622,1073743622,1073743622,1073743622,1073743622,1073743622,1073743622,1073743622,1073743622,1073743622,1073743622,1073743622,1073743622,
0,0,0,946,946,946,946,946,946,946,946,946,609,610,610,610,611,946,946,946,946,946,946,946,946,946,946,946,946,946,946,946,946,
0,0,0,946,946,946,946,946,946,946,946,946,2147484291,737,738,738,643,946,946,946,946,946,946,946,946,946,946,946,946,946,946,946,946,
0,0,0,946,946,946,946,946,946,946,946,946,2147484291,737,738,770,643,946,946,946,946,946,946,946,946,946,946,946,946,946,946,946,946,
0,0,0,946,946,946,946,946,946,946,946,946,2147484291,737,738,770,643,946,946,946,946,946,946,946,946,946,946,946,946,946,946,946,946,
0,0,0,610,610,610,610,610,610,610,610,610,706,769,770,770,643,946,946,946,946,946,946,946,946,946,946,946,946,946,946,946,946,
0,0,0,737,737,737,738,737,737,738,737,737,737,737,769,770,643,946,946,946,946,946,946,946,946,946,946,946,946,946,946,946,946,
0,0,0,737,769,737,737,769,737,737,769,769,737,769,769,770,643,946,946,946,946,946,946,946,946,946,946,946,946,946,946,946,946,
0,0,0,769,769,769,769,769,769,769,769,769,769,737,738,770,643,946,946,946,946,946,946,946,946,946,946,946,946,946,946,946,946,
0,0,0,1073742434,1073742434,1073742434,1073742434,1073742434,1073742434,1073742434,1073742434,1073742434,1073742530,737,737,738,643,946,946,946,946,946,946,946,946,946,946,946,946,946,946,946,946,
0,0,0,946,946,946,946,946,946,946,946,946,2147484291,769,737,738,643,946,946,946,946,946,946,946,946,946,946,946,946,946,946,946,946,
0,0,0,946,946,946,946,946,946,946,946,946,2147484291,737,738,738,705,610,610,610,610,610,610,610,610,610,610,610,610,610,610,610,610,
0,0,0,946,946,946,946,946,946,946,946,946,2147484291,769,770,770,737,737,738,738,738,738,738,738,738,738,738,738,737,737,738,737,738,
0,0,0,946,946,946,946,946,946,946,946,946,2147484291,737,737,738,769,769,770,770,770,770,770,770,770,770,770,1073742561,1073742561,1073742562,1073742561,1073742562,1073742562,
0,0,0,946,946,946,946,946,946,946,946,946,2147484291,769,737,738,769,769,769,769,769,769,769,769,769,769,769,1073742561,1073742561,1073742562,1073742561,1073742562,1073742562,
0,0,0,946,946,946,946,946,946,946,946,946,2147484291,737,738,738,1073742529,1073742434,1073742434,1073742434,1073742434,1073742434,1073742434,1073742434,1073742434,1073742434,1073742434,1073742434,1073742434,1073742434,1073742434,1073742434,1073742434,
0,0,0,946,946,946,946,946,946,946,946,946,2147484291,737,738,770,643,946,946,946,946,946,946,946,946,946,946,946,946,946,946,946,946,
0,0,0,610,610,610,610,610,610,610,610,610,706,737,738,738,705,610,610,610,610,610,610,610,610,610,610,610,610,610,610,610,610,
0,0,0,737,737,737,738,737,738,738,738,738,738,738,738,738,770,737,737,737,737,737,737,737,737,737,737,738,737,737,738,737,738,
0,0,0,1073742561,1073742561,1073742561,1073742561,1073742562,1073742561,1073742562,1073742562,1073742562,1073742562,1073742562,1073742562,1073742562,1073742562,1073742562,1073742562,1073742562,1073742562,1073742562,1073742562,1073742562,1073742562,1073742561,1073742561,1073742562,1073742561,1073742562,1073742562,1073742562,1073742562,
0,0,0,1073742561,1073742561,1073742562,1073742561,1073742562,1073742562,1073742561,1073742561,1073742561,1073742561,1073742561,1073742561,1073742561,1073742561,1073742561,1073742562,1073742561,1073742562,1073742562,1073742562,1073742562,1073742561,1073742561,1073742561,1073742562,1073742561,1073742562,1073742562,1073742562,1073742562,
0,0,0,1073742434,1073742434,1073742434,1073742434,1073742434,1073742434,1073742434,1073742434,1073742434,1073742434,1073742434,1073742434,1073742434,1073742434,1073742434,1073742434,1073742434,1073742434,1073742434,1073742434,1073742434,1073742434,1073742434,1073742434,1073742434,1073742434,1073742434,1073742434,1073742434,1073742434,
0,0,0,946,946,946,946,946,946,946,946,946,946,946,946,946,946,946,946,946,946,946,946,946,946,946,946,946,946,946,946,946,946,
0,0,0,946,946,946,946,946,946,946,946,946,946,946,946,946,946,946,946,946,946,946,946,946,946,946,946,946,946,946,946,946,946
</data>
 </layer>
 <objectgroup id="2" name="Back"/>
 <layer id="3" name="Buildings" width="33" height="33">
  <data encoding="csv">
946,946,946,946,2147484883,1239,1239,1238,1238,1239,1238,1239,1239,1238,1239,1238,1239,1238,1239,1238,1239,1238,1239,1238,1239,1238,1239,1238,1239,1238,1238,1235,946,
946,946,946,1215,2147484908,1264,1264,1263,1263,1264,1263,1264,1264,1263,1264,1263,1264,1263,1264,1263,1264,1263,1264,1263,1264,1263,1264,1263,1264,1263,1263,1260,1087,
1238,1239,1238,1240,2147484933,1289,1289,1288,1288,1289,1288,1289,1289,1288,1289,1288,1289,1288,1289,1288,1289,1288,1289,1288,1289,1288,1289,1288,1289,1288,1288,1285,1087,
1263,1264,1263,1265,2147484958,1314,1314,1313,1313,1314,1313,1314,1314,1313,1314,1313,1314,1313,1314,1313,1314,1313,1314,1313,1314,1313,1314,1313,1314,1313,1313,1310,1087,
1288,1289,1288,1290,0,0,0,0,0,0,0,0,0,0,0,0,0,0,0,0,0,0,0,0,0,0,0,0,0,0,0,0,1112,
1313,1314,1313,1315,0,0,0,0,0,0,0,0,0,0,0,0,0,0,0,0,2953,2954,2955,2956,2957,2958,2959,2960,0,0,0,0,1137,
1825,0,0,1825,0,0,0,0,0,0,0,0,0,0,0,0,0,0,0,0,0,0,0,0,0,0,0,0,0,0,0,0,1162,
1827,0,0,0,0,0,0,0,0,0,0,0,0,0,0,0,0,0,0,0,0,0,0,0,0,0,0,0,0,0,0,0,1187,
1825,0,0,1825,0,0,0,0,0,0,0,0,0,0,0,0,0,0,0,0,0,0,0,0,0,0,0,0,0,0,0,0,1112,
536871999,536871999,536871999,1073742937,0,0,0,0,0,0,0,0,0,0,0,0,0,0,0,0,0,0,0,0,0,0,0,0,0,0,0,0,1137,
946,946,946,2147484760,0,0,0,0,0,0,0,0,0,0,0,0,0,0,0,0,0,0,0,0,0,0,0,0,3765,3766,3767,0,1162,
946,946,946,2147484785,0,0,0,0,0,0,0,0,0,0,0,0,0,3769,0,0,0,0,0,0,0,0,0,0,3790,3791,3792,0,1187,
946,946,946,2147484810,1979,1981,2012,2016,2017,2018,2019,2020,0,0,0,0,0,0,0,0,0,0,0,0,0,0,0,0,0,3816,3817,0,1187,
946,946,946,2147484735,1979,2007,2012,2013,1981,2012,2013,2045,0,0,0,0,0,0,0,0,0,0,0,0,0,0,0,0,0,0,0,0,1137,
946,946,946,2147484760,1979,2032,2012,2013,1981,2012,2013,2045,79,0,0,0,0,0,0,0,0,0,0,0,0,0,0,0,0,0,0,0,1162,
946,946,946,2147484785,0,0,0,0,0,0,0,0,0,0,0,0,0,0,0,0,0,0,0,0,0,0,0,0,0,0,0,0,1187,
946,946,946,2147484810,0,0,0,0,0,0,0,0,0,0,0,0,0,0,0,0,0,0,0,0,0,0,0,0,0,859,860,0,1137,
946,946,946,2147484735,0,0,0,0,0,0,0,0,0,0,0,0,0,0,0,0,0,0,0,0,0,0,0,0,0,884,885,0,1162,
946,946,946,2147484760,0,0,0,0,0,0,0,0,0,0,0,0,0,0,2147485949,2214,2215,2268,2301,2268,2268,2147485949,2268,2301,0,0,0,0,1187,
946,946,946,2147484785,0,0,0,0,0,2147484002,17,18,0,0,0,0,0,0,2322,2239,2240,2324,2326,3570,3571,2322,2323,2147485970,0,0,0,0,1187,
946,946,946,2147484810,0,0,0,0,0,0,49,50,0,0,0,0,0,79,2322,2324,2323,2323,2326,3595,3596,2322,2324,2147485970,0,0,0,0,1112,
946,946,946,2147484735,0,0,0,0,0,0,0,0,0,0,0,0,0,0,0,0,0,0,0,0,0,0,0,0,0,0,0,0,1137,
946,946,946,2147484760,0,0,0,0,0,0,0,0,0,0,0,0,0,0,0,0,0,0,0,0,0,0,0,0,0,0,0,0,1162,
946,946,946,2147484785,0,0,0,0,0,0,0,0,0,0,0,0,0,0,0,0,0,0,0,0,0,0,0,0,0,0,0,0,1187,
946,946,946,2147484810,3136,3137,3138,3139,3140,3141,3142,0,0,0,0,0,0,0,0,0,0,0,0,0,0,0,0,0,0,784,785,786,1162,
946,946,946,2147484735,3161,3162,3163,3164,3165,3166,3167,0,0,0,0,0,0,0,719,720,721,722,723,724,725,726,0,0,0,809,810,811,1187,
946,946,946,2147484760,3186,3187,3188,3189,3190,3191,3192,79,0,0,0,0,0,79,751,752,753,754,755,756,757,758,0,0,0,834,835,836,1087,
946,946,946,2147484735,0,0,0,0,0,0,0,0,0,0,0,0,0,0,0,0,0,0,0,0,0,0,0,0,0,0,0,0,1087,
946,946,946,2147484760,0,0,0,0,0,0,0,0,0,0,0,0,0,0,0,0,0,0,0,0,0,0,0,0,0,0,0,0,1112,
946,946,946,2147484785,0,0,0,0,0,0,0,0,0,0,0,0,0,0,0,0,0,0,0,0,0,0,0,0,0,0,0,0,1137,
946,946,946,2147484810,0,0,0,0,0,0,0,0,0,0,0,0,0,0,0,0,0,0,0,0,0,0,0,0,0,0,0,0,1162,
946,946,946,2147484835,0,0,0,0,0,0,0,0,0,0,0,0,0,0,0,0,0,0,0,0,0,0,0,0,0,0,0,0,1187,
946,946,946,1192,536871999,536871999,536871999,536871999,536871999,536871999,536871999,536871999,536871999,536871999,536871999,536871999,536871999,536871999,536871999,536871999,536871999,536871999,536871999,536871999,536871999,536871999,536871999,536871999,536871999,536871999,536871999,536871999,1192
</data>
 </layer>
 <objectgroup id="4" name="Buildings">
  <object id="2" name="TileData" x="368" y="304" width="32" height="32">
   <properties>
    <property name="Action" value="Dialogue Seems the shop keeper isn't home."/>
   </properties>
  </object>
  <object id="11" name="TileData" x="336" y="304" width="32" height="16">
   <properties>
    <property name="Action" value="Dialogue The bulletin board is filled with posts but none of them catch your eye."/>
   </properties>
  </object>
  <object id="13" name="TileData" x="336" y="400" width="16" height="32">
   <properties>
    <property name="Action" value="Dialogue The trailer is locked"/>
   </properties>
  </object>
  <object id="14" name="TileData" x="112" y="400" width="16" height="32">
   <properties>
    <property name="Action" value="Dialogue The hospital is under maintenance."/>
   </properties>
  </object>
 </objectgroup>
 <layer id="5" name="Paths" width="33" height="33">
  <data encoding="csv">
0,0,0,0,0,0,0,0,0,0,0,0,0,0,0,0,0,0,0,0,0,0,0,0,0,0,0,0,0,0,0,0,0,
0,0,0,0,0,0,0,0,0,0,0,0,0,0,0,0,0,0,0,0,0,0,0,0,0,0,0,0,0,0,0,0,0,
0,0,0,0,0,0,0,0,0,0,0,0,0,0,0,0,0,0,0,0,0,0,0,0,0,0,0,0,0,0,0,0,0,
0,0,0,0,0,0,0,0,0,0,0,0,0,0,0,0,0,0,0,0,0,0,0,0,0,0,0,0,0,0,0,0,0,
0,0,0,0,0,0,0,0,0,0,0,0,0,0,0,0,0,0,0,0,0,0,0,0,0,0,0,0,0,0,0,0,0,
0,0,0,0,0,0,0,0,0,0,0,0,0,0,0,0,0,0,0,0,0,0,0,0,0,0,0,0,0,0,0,0,0,
0,0,0,0,0,0,0,0,0,0,0,0,0,0,0,0,0,0,0,0,0,0,0,0,0,0,0,0,0,0,0,0,0,
0,0,0,0,0,0,0,0,0,0,0,0,0,0,0,0,0,0,0,0,0,0,0,0,0,0,0,0,0,0,0,0,0,
0,0,0,0,0,0,0,0,0,0,0,0,0,0,0,0,0,0,0,0,0,0,0,0,0,0,0,0,0,0,0,0,0,
0,0,0,0,0,0,0,0,0,0,0,0,0,0,0,0,0,0,0,0,0,0,0,0,0,0,0,0,0,0,0,0,0,
0,0,0,0,0,0,0,0,0,0,0,0,0,0,0,0,0,0,0,0,0,0,0,0,0,0,0,0,0,0,0,0,0,
0,0,0,0,0,0,0,0,0,0,0,0,0,0,0,0,0,0,0,0,0,0,0,0,0,0,0,0,0,0,0,0,0,
0,0,0,0,0,0,0,0,0,0,0,0,0,0,0,0,0,0,0,0,0,0,0,0,0,0,0,0,0,0,0,0,0,
0,0,0,0,0,0,0,0,0,0,0,0,0,0,0,0,0,0,0,0,0,0,0,0,0,0,0,0,0,0,0,0,0,
0,0,0,0,0,0,0,0,0,0,0,0,0,0,0,0,0,0,0,0,0,0,0,0,0,0,0,0,0,0,0,0,0,
0,0,0,0,0,0,0,0,0,0,0,0,0,0,0,0,0,0,0,0,0,0,0,0,0,0,0,0,0,0,0,0,0,
0,0,0,0,0,0,0,0,0,0,0,0,0,0,0,0,0,0,0,0,0,0,0,0,0,0,0,0,0,0,0,0,0,
0,0,0,0,0,0,0,0,0,0,0,0,0,0,0,0,0,0,0,0,0,0,0,0,0,0,0,0,0,0,0,0,0,
0,0,0,0,0,0,0,0,0,0,0,0,0,0,0,0,0,0,0,0,0,0,0,0,0,0,0,0,0,0,0,0,0,
0,0,0,0,0,0,0,0,0,0,0,0,0,0,0,0,0,0,0,0,0,0,0,0,0,0,0,0,0,0,0,0,0,
0,0,0,0,0,0,0,0,0,0,0,0,0,0,0,0,0,0,0,0,0,0,0,0,0,0,0,0,0,0,0,0,0,
0,0,0,0,0,0,0,0,0,0,0,0,0,0,0,0,0,0,0,0,0,0,0,0,0,0,0,0,0,0,0,0,0,
0,0,0,0,0,0,0,0,0,0,0,0,0,0,0,0,0,0,0,0,0,0,0,0,0,0,0,0,0,0,0,0,0,
0,0,0,0,0,0,0,0,0,0,0,0,0,0,0,0,0,0,0,0,0,0,0,0,0,0,0,0,0,0,0,0,0,
0,0,0,0,0,0,0,0,0,0,0,0,0,0,0,0,0,0,0,0,0,0,0,0,0,0,0,0,0,0,0,0,0,
0,0,0,0,0,0,0,0,0,0,0,0,0,0,0,0,0,0,0,0,0,0,0,0,0,0,0,0,0,0,0,0,0,
0,0,0,0,0,0,0,0,0,0,0,0,0,0,0,0,0,0,0,0,0,0,0,0,0,0,0,0,0,0,0,0,0,
0,0,0,0,0,0,0,0,0,0,0,0,0,0,0,0,0,0,0,0,0,0,0,0,0,0,0,0,0,0,0,0,0,
0,0,0,0,0,0,0,0,0,0,0,0,0,0,0,0,0,0,0,0,0,0,0,0,0,0,0,0,0,0,0,0,0,
0,0,0,0,0,0,0,0,0,0,0,0,0,0,0,0,0,0,0,0,0,0,0,0,0,0,0,0,0,0,0,0,0,
0,0,0,0,0,0,0,0,0,0,0,0,0,0,0,0,0,0,0,0,0,0,0,0,0,0,0,0,0,0,0,0,0,
0,0,0,0,0,0,0,0,0,0,0,0,0,0,0,0,0,0,0,0,0,0,0,0,0,0,0,0,0,0,0,0,0,
0,0,0,0,0,0,0,0,0,0,0,0,0,0,0,0,0,0,0,0,0,0,0,0,0,0,0,0,0,0,0,0,0
</data>
 </layer>
 <objectgroup id="6" name="Paths"/>
 <layer id="7" name="Front" width="33" height="33">
  <data encoding="csv">
0,0,0,0,0,0,0,0,0,0,0,0,0,0,0,0,0,0,0,0,0,0,0,0,0,0,0,0,0,0,0,0,0,
0,0,0,0,0,0,0,0,0,0,0,0,0,0,0,0,0,0,0,0,0,0,0,0,0,0,0,0,0,0,0,0,0,
0,0,0,0,0,0,0,0,0,0,0,0,0,0,0,0,0,0,0,0,0,0,0,0,0,0,0,0,0,0,0,0,0,
0,0,0,0,0,0,0,0,0,0,0,0,0,0,0,0,0,0,0,0,0,0,0,0,0,0,0,0,0,0,0,0,0,
0,0,0,0,0,0,0,0,0,0,0,0,0,0,0,0,0,0,0,0,0,0,0,0,0,0,0,0,0,0,0,0,0,
0,0,0,0,0,0,0,0,0,0,0,0,0,0,0,0,0,0,0,0,0,0,0,0,0,0,0,0,0,0,0,0,0,
0,0,0,0,0,0,0,0,0,0,0,0,0,0,0,0,0,0,0,0,0,0,0,0,0,0,0,0,0,0,0,0,0,
0,0,0,0,0,0,0,0,0,0,0,0,0,0,0,0,0,0,0,0,0,0,0,0,0,0,0,0,0,0,0,0,0,
0,0,0,0,0,0,0,0,0,0,0,0,0,0,0,0,0,0,0,0,0,0,0,0,0,0,0,0,0,0,0,0,0,
0,0,0,0,0,0,0,0,0,0,0,0,0,0,0,0,0,0,0,0,0,0,0,0,0,0,0,0,0,0,0,0,0,
0,0,0,0,0,0,0,0,0,0,0,0,0,0,0,0,0,0,0,0,0,0,0,0,0,0,0,0,0,0,0,0,0,
0,0,0,0,0,0,0,0,0,0,0,0,0,0,0,0,0,0,0,0,0,0,0,0,0,0,0,0,0,0,0,0,0,
0,0,0,0,0,0,0,0,0,0,0,0,0,0,0,0,0,0,0,0,0,0,0,0,0,0,0,0,0,0,0,0,0,
0,0,0,0,0,0,0,0,0,0,0,0,0,0,0,0,0,0,0,0,0,0,0,0,0,0,0,0,0,0,0,0,0,
0,0,0,0,0,0,0,0,0,0,0,0,0,0,0,0,0,0,0,0,0,0,0,0,0,0,0,0,0,0,0,0,0,
0,0,0,0,0,0,0,0,0,0,0,0,0,0,0,0,0,0,0,0,0,0,0,0,0,0,0,0,0,0,0,0,0,
0,0,0,0,0,0,0,0,0,0,0,0,0,0,0,0,0,0,0,0,0,0,0,0,0,0,0,0,0,0,0,0,0,
0,0,0,0,0,0,0,0,0,0,0,0,0,0,0,0,0,0,0,0,0,0,0,0,0,0,0,0,0,0,0,0,0,
0,0,0,0,0,0,0,0,0,0,0,0,0,0,0,0,0,0,0,0,0,0,0,0,0,0,0,0,0,0,0,0,0,
0,0,0,0,0,0,0,0,0,0,0,0,0,0,0,0,0,0,0,0,0,0,0,0,0,0,0,0,0,0,0,0,0,
0,0,0,0,0,0,0,0,0,0,0,0,0,0,0,0,0,0,0,0,0,0,0,0,0,0,0,0,0,0,0,0,0,
0,0,0,0,0,0,0,0,0,0,0,0,0,0,0,0,0,0,0,0,0,0,0,0,0,0,0,0,0,0,0,0,0,
0,0,0,0,0,0,0,0,0,0,0,0,0,0,0,0,0,0,0,0,0,0,0,0,0,0,0,0,0,0,0,0,0,
0,0,0,0,0,0,0,0,0,0,0,0,0,0,0,0,0,0,0,0,0,0,0,0,0,0,0,0,0,0,0,0,0,
0,0,0,0,0,0,0,0,0,0,0,0,0,0,0,0,0,0,0,0,0,0,0,0,0,0,0,0,0,0,0,0,0,
0,0,0,0,0,0,0,0,0,0,0,0,0,0,0,0,0,0,0,0,0,0,0,0,0,0,0,0,0,0,0,0,0,
0,0,0,0,0,0,0,0,0,0,0,0,0,0,0,0,0,0,0,0,0,0,0,0,0,0,0,0,0,0,0,0,0,
0,0,0,0,0,0,0,0,0,0,0,0,0,0,0,0,0,0,0,0,0,0,0,0,0,0,0,0,0,0,0,0,0,
0,0,0,0,0,0,0,0,0,0,0,0,0,0,0,0,0,0,0,0,0,0,0,0,0,0,0,0,0,0,0,0,0,
0,0,0,0,0,0,0,0,0,0,0,0,0,0,0,0,0,0,0,0,0,0,0,0,0,0,0,0,0,0,0,0,0,
0,0,0,0,0,0,0,0,0,0,0,0,0,0,0,0,0,0,0,0,0,0,0,0,0,0,0,0,0,0,0,0,0,
0,0,0,0,0,0,0,0,0,0,0,0,0,0,0,0,0,0,0,0,0,0,0,0,0,0,0,0,0,0,0,0,0,
0,0,0,0,0,0,0,0,0,0,0,0,0,0,0,0,0,0,0,0,0,0,0,0,0,0,0,0,0,0,0,0,0
</data>
 </layer>
 <objectgroup id="8" name="Front"/>
 <layer id="9" name="AlwaysFront" width="33" height="33">
  <data encoding="csv">
834,835,836,0,0,0,0,0,0,0,0,0,0,0,0,0,0,0,0,0,0,0,0,0,0,0,0,0,0,0,0,0,0,
0,0,0,0,0,0,0,0,0,0,0,0,0,0,0,0,0,0,0,0,2853,2854,2855,2856,2857,2858,2859,2860,0,0,0,0,0,
0,0,0,0,0,0,0,0,0,0,0,0,0,0,0,0,0,0,0,0,2878,2879,2880,2881,2882,2883,2884,2885,0,0,0,0,0,
0,0,0,0,0,0,0,0,0,0,0,0,0,0,0,0,0,0,0,0,2903,2904,2905,2906,2907,2908,2909,2910,0,0,0,0,0,
0,0,0,0,0,0,0,0,0,0,0,0,0,0,0,0,0,0,0,0,2928,2929,2930,2931,2932,2933,2934,2935,0,0,0,0,0,
0,0,0,0,0,0,0,0,0,0,0,0,0,0,0,0,0,0,0,0,0,0,0,0,0,0,0,0,0,0,0,0,0,
0,0,0,0,0,0,0,0,0,0,0,0,0,0,0,0,0,0,0,0,0,0,0,0,0,0,0,0,0,0,0,0,0,
0,0,0,0,0,0,0,0,0,0,0,0,0,0,0,0,0,0,0,0,0,0,0,0,0,0,0,0,0,0,0,0,0,
0,0,0,0,1912,1913,1913,1916,1917,1918,1919,1920,0,0,0,0,3693,3694,3695,0,0,0,0,0,0,0,0,0,0,0,0,0,0,
774,775,776,0,1937,1938,1938,1941,1942,1943,1944,1945,0,0,0,0,3718,3719,3720,0,0,0,0,0,0,0,0,0,0,0,0,0,0,
799,800,801,0,1962,1963,1963,1966,1967,1968,1969,1970,0,0,0,0,3743,3744,3745,0,0,0,0,0,0,0,0,0,0,0,0,0,0,
824,825,826,0,2147485607,1989,1990,1991,1992,1993,1994,1995,0,0,0,0,3768,0,3770,2073,2074,2074,2074,2074,2075,0,0,0,0,0,0,0,0,
849,850,851,0,0,0,0,0,0,0,0,0,0,0,0,0,0,2096,2097,2098,2099,2099,2099,2099,2100,2101,0,0,0,0,0,0,0,
874,875,876,0,0,0,0,0,0,0,0,0,47,0,0,0,0,2121,2122,2123,2124,2124,2124,2124,2125,2126,2141,2143,2170,0,0,0,0,
899,900,859,860,0,0,0,0,0,0,0,0,0,0,0,0,0,2146,2147,2148,2149,2149,2149,2149,2150,2151,2166,2168,2195,0,0,0,0,
0,0,884,885,0,0,0,0,0,0,0,0,0,0,0,0,0,2171,2172,2173,2275,2275,2275,2275,2175,2176,2191,2193,2220,0,0,0,0,
788,789,790,791,792,0,0,0,0,0,0,0,0,0,0,0,0,2196,2197,2198,2198,2198,2198,2198,2198,2201,2216,2218,2245,0,0,0,0,
813,814,815,816,817,0,282,0,284,0,0,0,0,0,0,0,0,0,2272,2275,2275,2275,2275,2275,2275,2242,2243,2244,2270,0,0,0,0,
838,839,840,841,842,2987,2988,2989,2990,2991,0,0,0,0,0,0,0,0,0,0,0,0,0,0,0,0,0,0,2295,0,0,0,0,
863,864,865,866,867,3012,3013,3014,3015,3016,0,0,0,0,0,0,0,47,0,0,0,0,0,0,0,0,0,0,2320,0,0,0,0,
0,889,890,0,3036,3037,3038,3039,3040,3041,3042,0,0,0,0,0,0,0,0,0,0,0,0,0,0,0,0,0,2320,0,0,0,0,
0,914,915,0,3061,3062,3063,3064,3065,3066,3067,0,0,0,0,0,0,0,0,0,0,0,0,0,0,0,0,0,0,0,0,0,0,
0,939,940,0,3086,3087,3088,3089,3090,3091,3092,0,0,0,0,0,0,0,0,0,0,0,0,0,0,0,0,0,0,0,0,0,0,
785,786,0,0,3111,3112,3113,3114,3115,3116,3117,0,0,0,0,0,0,0,655,656,657,658,659,660,661,662,0,0,0,0,0,0,0,
810,811,0,0,0,0,0,0,0,0,0,0,0,0,0,0,0,0,687,688,689,690,691,692,693,694,0,0,0,0,0,0,0,
835,836,782,783,0,0,0,0,0,0,0,47,0,0,0,0,0,47,0,0,0,0,0,0,0,0,0,0,0,0,0,0,0,
0,806,807,808,0,0,0,0,0,0,0,0,0,0,0,0,0,0,0,0,0,0,0,0,0,0,0,0,0,0,0,0,0,
0,831,832,833,0,0,0,0,0,0,0,0,0,0,0,0,0,0,0,0,0,0,0,0,0,0,0,0,0,0,0,0,0,
860,856,857,858,0,0,0,0,0,0,0,771,772,773,0,0,0,0,0,0,0,0,0,0,0,0,0,0,0,0,0,0,0,
885,0,882,883,0,0,0,0,0,0,0,796,797,798,0,0,0,0,0,0,0,0,0,0,0,0,0,0,0,0,0,0,0,
0,0,907,908,0,0,0,0,0,0,0,821,822,823,0,0,0,0,0,787,788,789,790,791,792,0,0,0,0,0,0,0,0,
784,785,786,0,0,0,0,0,0,0,0,846,847,848,0,0,0,0,0,812,813,814,815,816,817,0,0,0,0,0,0,0,0,
809,810,811,0,0,859,860,0,0,0,0,0,872,0,0,0,0,0,0,837,838,839,840,841,842,859,860,0,0,0,0,0,0
</data>
 </layer>
 <objectgroup id="10" name="AlwaysFront"/>
</map>
